suite-common/icons/assets/icons/circleRight.svg

<svg xmlns="http://www.w3.org/2000/svg" xml:space="preserve" fill="none" viewBox="0 0 20 20">
  <path fill="#000" fill-rule="evenodd" d="M9.2 1.787c-1.106.133-1.896.361-2.817.811-.904.443-1.465.846-2.202 1.583s-1.14 1.298-1.583 2.202A7.5 7.5 0 0 0 2 8c-.185.743-.217 1.037-.217 2s.032 1.257.217 2c.144.58.31 1.028.598 1.617.443.904.846 1.465 1.583 2.202s1.298 1.14 2.202 1.583A7.5 7.5 0 0 0 8 18c.743.185 1.037.217 2 .217s1.257-.032 2-.217a8.5 8.5 0 0 0 3.05-1.477c.344-.259 1.214-1.129 1.473-1.473a8.5 8.5 0 0 0 1.633-3.8c.048-.29.061-.552.061-1.25 0-.963-.032-1.257-.217-2a8.5 8.5 0 0 0-1.477-3.05c-.259-.344-1.129-1.214-1.473-1.473-.915-.69-1.963-1.202-3-1.466-.684-.175-1.013-.214-1.9-.226a17 17 0 0 0-.95.002m1.767 1.535c2.108.296 3.982 1.614 4.996 3.516a6.8 6.8 0 0 1 .552 4.915c-.566 2.069-2.048 3.737-4.012 4.514a6.84 6.84 0 0 1-4.141.281 6.77 6.77 0 0 1-4.43-3.598A6.4 6.4 0 0 1 3.26 10a6.56 6.56 0 0 1 1.134-3.753 6.73 6.73 0 0 1 6.573-2.925M8.879 6.464a.77.77 0 0 0-.431.306c-.074.107-.098.184-.109.352-.026.408-.055.372 1.397 1.681.714.642 1.297 1.181 1.297 1.197s-.583.555-1.297 1.197c-1.452 1.308-1.423 1.273-1.397 1.681s.31.67.726.668a.8.8 0 0 0 .32-.054c.056-.029.836-.714 1.733-1.521 1.768-1.589 1.815-1.64 1.815-1.96 0-.349.004-.345-1.793-1.962-.909-.818-1.693-1.508-1.741-1.533a1 1 0 0 0-.52-.052"/>
</svg>

<svg xmlns="http://www.w3.org/2000/svg" xml:space="preserve" fill="none" viewBox="0 0 20 20"><path d="M9.200 1.787 C 8.094 1.920,7.304 2.148,6.383 2.598 C 5.479 3.041,4.918 3.444,4.181 4.181 C 3.444 4.918,3.041 5.479,2.598 6.383 C 2.310 6.972,2.144 7.420,2.000 8.000 C 1.815 8.743,1.783 9.037,1.783 10.000 C 1.783 10.963,1.815 11.257,2.000 12.000 C 2.144 12.580,2.310 13.028,2.598 13.617 C 3.041 14.521,3.444 15.082,4.181 15.819 C 4.918 16.556,5.479 16.959,6.383 17.402 C 6.972 17.690,7.420 17.856,8.000 18.000 C 8.743 18.185,9.037 18.217,10.000 18.217 C 10.963 18.217,11.257 18.185,12.000 18.000 C 13.070 17.733,14.114 17.228,15.050 16.523 C 15.394 16.264,16.264 15.394,16.523 15.050 C 17.387 13.903,17.923 12.656,18.156 11.250 C 18.204 10.960,18.217 10.698,18.217 10.000 C 18.217 9.037,18.185 8.743,18.000 8.000 C 17.733 6.930,17.228 5.886,16.523 4.950 C 16.264 4.606,15.394 3.736,15.050 3.477 C 14.135 2.787,13.087 2.275,12.050 2.011 C 11.366 1.836,11.037 1.797,10.150 1.785 C 9.692 1.778,9.264 1.779,9.200 1.787 M10.967 3.322 C 13.075 3.618,14.949 4.936,15.963 6.838 C 16.754 8.320,16.958 10.133,16.515 11.753 C 15.949 13.822,14.467 15.490,12.503 16.267 C 11.189 16.787,9.710 16.888,8.362 16.548 C 6.428 16.061,4.797 14.737,3.932 12.950 C 3.464 11.983,3.260 11.087,3.260 10.000 C 3.260 8.619,3.634 7.380,4.394 6.247 C 5.847 4.081,8.372 2.957,10.967 3.322 M8.879 6.464 C 8.714 6.505,8.551 6.621,8.448 6.770 C 8.374 6.877,8.350 6.954,8.339 7.122 C 8.313 7.530,8.284 7.494,9.736 8.803 C 10.450 9.445,11.033 9.984,11.033 10.000 C 11.033 10.016,10.450 10.555,9.736 11.197 C 8.284 12.505,8.313 12.470,8.339 12.878 C 8.365 13.286,8.649 13.548,9.065 13.546 C 9.200 13.546,9.322 13.525,9.385 13.492 C 9.441 13.463,10.221 12.778,11.118 11.971 C 12.886 10.382,12.933 10.331,12.933 10.011 C 12.933 9.662,12.937 9.666,11.140 8.049 C 10.231 7.231,9.447 6.541,9.399 6.516 C 9.285 6.457,9.012 6.430,8.879 6.464 " stroke="none" fill-rule="evenodd" fill="black"></path></svg>
